X:1
T:Sonata per organo
T:Vincenzo Bellini
%%score { 1 | 2 }
L:1/8
Q:1/4=92
M:4/4
K:G
V:1 treble nm="Organ"
V:2 bass 
V:1
"^Larghetto" G3 B/d/ g2 g2 | g4 f2 z2 | e2 e2 f>e (3fag | e2 z/ E/G/B/ e2 z2 | D3 F/A/ d2 d2 | %5
 d4 ^c2 z2 | B2 B2 ^c>B (3ced | B4 (3=AB=c (3cde | e2 G>G A>B (3ced | G2 g>g g>f g>a | %10
 _bgd_B G3 G | g3 _b agfg | d2 z2 z2 z d | _e2 e2 gf=ef | a4 g2 =f2 | _e2 e2 =fed^c | ^c4 d2 z d | %17
 (=f_e)de g^f=ef | (ag) .g.g g2 =f2 | _e2 e2 =fed^c | d2 z2 D2 z2 | D4 !fermata!z4 |] %22
[K:treble+8][Q:1/4=140]"^Allegro" B4 c2 d2 | G7/2 A/ G2 G2 | A4 B2 A2 | F7/2 G/ D2 D2 | B4 ^c2 d2 | %27
 A7/2 B/ A2 f2 | a2 g2 B2 ^c2 | d2 !fermata!z2 z2[Q:1/4=120]"_a piacere lento" ^d2 | e2 B2 =c2 A2 | %31
 G4 F2 ^d2 | f=e=dc dcBA | G2- G/F/A/G/[Q:1/4=48]"_stentato" !fermata!F GA^A | %34
[Q:1/4=138]"^Allegro" B4 c2 d2 | G7/2 A/ G2 G2 | A4 B2 A2 |{A} F7/2 G/ D2 D2 | B4 ^c2 d2 | %39
 d7/2 e/ f2 g2 | f2 ^c2 d2 c2 | B7/2 ^c/ B2 B2 | ^c4 d2 c2 | B7/2 d/ f2 B2 | ^c4 d2 c2 | %45
 B7/2 d/ f2 B2 | =c2 c2- cdef | f2 g2- gecA | (!>!e2 d)B (!>!d2 c)A | %49
 G2[K:treble] z"^loco" D (F2 G)D | (^A2 B)G (d2 ^c)d | (^d2 e)=c (B2 A)G | (G2 F)A (ed) (ed) | %53
 (c2 B)[K:treble+8]D (F2 G)D | (^A2 B)G (d2 ^c)d | (^d2 e)=c (B2 A)G | (G2 F)A (ed) (ed) | %57
 (c2 B)B (c2 B)B | (c2 B)e (^d2 e)f | (f2 e)G (B2 A)A | (B2 A)d (^c2 d)e | d2 z d _e2 d^c | %62
 dfad _e2 d^c | d2 =e^c d2 ec | d2 e^c d2 ec |[Q:1/4=120]"_a piacere largo" !fermata!d^cd^d f3 e | %66
 dcBA (G2 G/)F/A/G/ | !fermata!F DEF[Q:1/4=48]"_stentate" G^GA^A |[Q:1/4=136]"^Allegro" B4 c2 d2 | %69
 G7/2 A/ G2 G2 | A4 B2 A2 | F7/2 G/ D2 D2 | B4 c2 B2 | A7/2 B/ A2 F2 | a2 g2 B2 ^c2 | %75
 d2 !fermata!z2 z2[Q:1/4=111]"_a piacere lento" ^d2 | e2 B2 c2 A2 | G4 F2 ^d2 | %78
 (6:4:6fedcBc (6:4:6dcBAcA | G2 G/F/A/G/ !fermata!F DEF |[Q:1/4=54]"_stentate" G2 ^G2 A2 ^A2 | %81
[Q:1/4=140]"^Allegro" B4 c2 d2 | G7/2 A/ G2 G2 | A4 B2 A2 | F7/2 G/ D2 D2 | B4 ^c2 d2 | %86
 d7/2 e/ f2 g2 | f2 ^c2 d2 c2 | B7/2 ^A/ B2 B2 | ^c4 d2 c2 | B7/2 d/ f2 B2 | ^c4 d2 c2 | %92
 B7/2 d/ f2 B2 | c2 c2- cdef | f2 g2- gecA | (e2 d)B (d2 c)A | G2[K:treble]"^loco" z D (F2 G)D | %97
 (^A2 B)G (d2 ^c)d | (^d2 e)c (B2 A)G | (G2 F)A (ed) (ed) | (c2 B)D (F2 G)[K:treble+8]D | %101
 (^A2 B)G (d2 ^c)d | (^d2 e)c (B2 A)G | G2 FA (ed) (ed) |: (3GDB, (3BDB, (3ADB, (3GDB, | %105
 (3FDB, (3GDB, (3ADB, (3BDB, | (3BDC (3ADC (3BDC (3ADC | (3BDC (3ADC (3GDC (3FDC | %108
 (3GDB, (3BDB, (3ADB, (3GDB, | (3FDB, (3GDB, (3ADB, (3BDB, | (3BDC (3ADC (3BDC (3ADC | %111
 (3BDC (3ADC (3GDC (3FDC | (3GDB, (3GDB, (3BDB, (3ADB, | (3^GDB, (3GDB, (3ADB, (3BDB, | %114
 (3cEC (3cEC (3cEC (3BEC | (3^AE^C (3AEC (3BEC (3^cEC | (3dBD (3dBD (3ecD (3dBD | %117
 (3dBD (3cAD (3B^GD (3cAD | (3BGD (3dBD (3ecD (3dBD | (3dBD (3cAD (3B^GD (3cAD | %120
 (3BGD (3BGD (3BEC (3AEC | (3ADB, (3GDB, (3ACA, (3FCA, :| [B,G]2 [DB]2 [DA]2 [Dd]2 | %123
 [DB]2 [Gg]2 [Af]2 [ca]2 | [Bdg]2 [Bdg]2 [Bdg]2 [Bdg]2 | [Bdg]2[K:treble] [B,DG]2 [B,DG]2 [B,DG]2 | %126
 [B,DG]4 z4 | [Bdg]4 z4 | [B,DG]8 |] %129
V:2
 [G,,B,,D,]4 z4 | [A,,C,G,]4 [A,,C,F,]4 | [B,,E,G,]4 [B,,^D,A,]4 | [E,G,]2 D,,2 z4 | [D,,F,,A,,]8 | %5
 [E,,-G,,-D,]4 [E,,G,,^C,]4 | [F,,B,,D,]4 [F,,^A,,E,]4 | [B,,D,]4 [=C,E,]4 | [D,G,B,]4 [D,F,A,]4 | %9
 [_E,G,_B,]2 [E,G,B,]2 [E,G,B,]2 [E,G,B,]2 | [D,G,_B,]2 [D,G,B,]2 [D,G,B,]2 [D,G,B,]2 | %11
 [^C,G,_B,]2 [C,G,B,]2 [C,G,B,]2 [C,G,B,]2 | B,,2- [B,,-F,A,]2 [B,,-F,A,]2 [B,,F,A,]2 | %13
 D,2 [G,_B,]2 D,2 [A,C]2 | D,2- [D,-_B,D]2 [D,-B,D]2 [D,A,C]2 | %15
 D,2- [D,-G,_B,]2 [D,-G,B,]2 [D,G,B,]2 | D,2- [D,-F,A,]2 [D,-F,A,]2 [D,F,A,]2 | %17
 D,2 [G,_B,]2 D,2 [A,C]2 | D,2- [D,-_B,D]2 [D,-B,D]2 [D,A,C]2 | %19
 D,2- [D,-G,_B,]2 [D,-G,B,]2 [D,G,B,]2 | [D,^F,A,]2 z2 [D,F,A,]2 z2 | [D,F,A,]4 !fermata!z4 |] %22
 [G,B,]D[G,B,]D [G,B,]D[G,B,]D | [G,B,]D[G,B,]D [G,B,]D[G,B,]D | [D,C]D[D,C]D [D,C]D[D,C]D | %25
 [G,B,]D[G,B,]D [G,B,]D[G,B,]D | [G,B,]D[G,B,]D [G,B,]D[G,B,]D | [A,D]F[A,D]F [A,D]F[A,D]F | %28
 [A,^C]G[A,C]G [A,C]G[A,C]G | [DF]2 !fermata!z2 z4 | z8 | [_E,A,C-]4 [D,A,C]2 z2 | z8 | %33
 [_E,A,C-]4 [D,A,C]2 !fermata!z2 | [G,B,]D[G,B,]D [G,B,]D[G,B,]D | [G,B,]D[G,B,]D [G,B,]D[G,B,]D | %36
 [F,C]D[F,C]D [F,C]D[F,C]D | [G,B,]D[G,B,]D [G,B,]D[G,B,]D | [G,B,]D[G,B,]D [G,B,]D[G,B,]D | %39
 [F,B,]D[F,B,]D [F,B,]D[F,B,]D | [F,^A,]E[F,A,]E [F,A,]E[F,A,]E | [B,D]F[B,D]F [B,D]F[B,D]F | %42
 [^A,E]F[A,E]F [A,E]F[A,E]F | [B,D]F[B,D]F [B,D]F[B,D]F | [^A,E]F[A,E]F [A,E]F[A,E]F | %45
 [B,D]F[B,D]F [B,D]F[B,D]F | [=A,C]E[A,C]E [D,A,]C[D,A,]C | [G,B,]D[G,B,]D [C,E,]A,[C,E,]A, | %48
 [D,G,]B,[D,G,]B, [D,F,]C[D,F,]C | G,DB,D G,DB,D | G,DB,D G,DB,D | C,A,E,A, C,A,E,A, | %52
 D,CA,C D,CA,C | G,DB,D G,DB,D | G,DB,D G,DB,D | C,A,E,A, C,A,E,A, | D,CA,C D,CA,C | %57
 G,DB,D ^D,B,F,B, | F,B,G,B, F,^DA,D | G,EB,E ^C,A,E,A, | D,A,F,A, F,^CG,C | D,A,F,A, D,_B,G,B, | %62
 D,A,F,A, D,_B,G,B, | [D,F,A,]2 [D,G,_B,]2 [D,F,A,]2 [D,G,B,]2 | %64
 [D,F,A,]2 [D,G,_B,]2 [D,F,A,]2 [D,G,B,]2 | [D,F,A,]2 !fermata!z2 z4 | z8 | !fermata!z8 | %68
 [G,B,]D[G,B,]D [G,B,]D[G,B,]D | [G,B,]D[G,B,]D [G,B,]D[G,B,]D | [F,C]D[F,C]D [F,C]D[F,C]D | %71
 [G,B,]D[G,B,]D [G,B,]D[G,B,]D | [G,B,]D[G,B,]D [G,B,]D[G,B,]D | [A,D]F[A,D]F [A,D]F[A,D]F | %74
 [A,^C]G[A,C]G [A,C]G[A,C]G | [DF]2 !fermata!z2 z4 | z8 | [_E,A,C-]4 [D,A,C]2 z2 | z8 | %79
 [_E,A,C-]4 [D,A,C]2 !fermata!z2 | z8 | [G,B,]D[G,B,]D [G,B,]D[G,B,]D | %82
 [G,B,]D[G,B,]D [G,B,]D[G,B,]D | [F,C]D[F,C]D [F,C]D[F,C]D | [G,B,]D[G,B,]D [G,B,]D[G,B,]D | %85
 [G,B,]D[G,B,]D [G,B,]D[G,B,]D | [F,B,]D[F,B,]D [F,B,]D[F,B,]D | [F,^A,]E[F,A,]E [F,A,]E[F,A,]E | %88
 [B,D]F[B,D]F [B,D]F[B,D]F | [^A,E]F[A,E]F [A,E]F[A,E]F | [B,D]F[B,D]F [B,D]F[B,D]F | %91
 [^A,E]F[A,E]F [A,E]F[A,E]F | [B,D]F[B,D]F [B,D]F[B,D]F | [A,C]E[A,C]E [D,A,]C[D,A,]C | %94
 [G,B,]D[G,B,]D [C,E,]A,[C,E,]A, | [D,G,]B,[D,G,]B, [D,F,]C[D,F,]C | G,DB,D G,DB,D | %97
 G,DB,D G,DB,D | C,A,E,A, C,A,E,A, | D,CA,C D,CA,C | G,DB,D G,DB,D | G,DB,D G,DB,D | %102
 C,A,E,A, C,A,E,A, | D,CA,C D,CA,C |: G,,2 z2 G,2 z2 | G,,2 z2 G,2 z2 | D,,2 z2 [D,F,]2 z2 | %107
 D,,2 z2 [D,F,]2 z2 | G,,2 z2 G,2 z2 | G,,2 z2 G,2 z2 | D,,2 z2 [D,F,]2 z2 | D,,2 z2 [D,F,]2 z2 | %112
 G,,2 z2 G,2 =F,2 | E,4 F,2 ^G,2 | A,4 A,2 G,2 | F,4 ^G,2 ^A,2 | B,2 z2 z4 | D,2 z2 [F,A,C]2 z2 | %118
 G,,2 z2 [G,B,D]2 z2 | D,2 z2 [F,A,C]2 z2 | G,2 [B,D]2 C,2 [E,A,]2 | D,2 [G,B,]2 D,,2 [D,F,C]2 :| %122
 [G,,G,]2 [G,B,]2 [D,F,A,]2 [D,F,A,]2 | [G,B,]2 [G,B,]2 [D,F,A,]2 [D,F,A,]2 | %124
 [G,B,]2 G,2 D,2 B,,2 | G,,2 G,2 D,2 B,,2 | G,,4 z4 | [G,B,]4 z4 | [G,,G,]8 |] %129

